src/assets/icon/search-folder.svg

<svg width="32" height="32" viewBox="0 0 32 32" fill="none" xmlns="http://www.w3.org/2000/svg">
<g clip-path="url(#clip0_297_12630)">
<path d="M23.4861 16.767C27.0591 16.767 29.9175 19.6254 29.9175 23.1984C29.9175 24.4562 29.5602 25.6424 28.9313 26.6285L33.3333 31.0591L31.3467 33.0457L26.8876 28.658C25.9014 29.2726 24.7295 29.6299 23.4861 29.6299C19.913 29.6299 17.0546 26.7715 17.0546 23.1984C17.0546 19.6254 19.913 16.767 23.4861 16.767ZM23.4861 19.6254C22.5384 19.6254 21.6296 20.0019 20.9596 20.6719C20.2895 21.342 19.913 22.2508 19.913 23.1984C19.913 24.1461 20.2895 25.0549 20.9596 25.725C21.6296 26.395 22.5384 26.7715 23.4861 26.7715C24.4337 26.7715 25.3425 26.395 26.0126 25.725C26.6826 25.0549 27.0591 24.1461 27.0591 23.1984C27.0591 22.2508 26.6826 21.342 26.0126 20.6719C25.3425 20.0019 24.4337 19.6254 23.4861 19.6254ZM12.767 5.33333L15.6254 8.19175H27.0591C27.8172 8.19175 28.5442 8.4929 29.0803 9.02896C29.6163 9.56502 29.9175 10.2921 29.9175 11.0502V16.4955C28.1894 14.8331 25.8839 13.9058 23.4861 13.9086C21.0222 13.9086 18.6593 14.8873 16.9171 16.6295C15.1749 18.3717 14.1962 20.7346 14.1962 23.1984C14.1962 25.0421 14.725 26.7715 15.6254 28.2007H4.19173C3.43363 28.2007 2.70658 27.8995 2.17052 27.3635C1.63447 26.8274 1.33331 26.1004 1.33331 25.3423V8.19175C1.33331 6.60532 2.60531 5.33333 4.19173 5.33333H12.767Z" fill="#F8F8FB"/>
</g>
<defs>
<clipPath id="clip0_297_12630">
<rect width="32" height="32" fill="white"/>
</clipPath>
</defs>
</svg>

<svg xmlns="http://www.w3.org/2000/svg" width="32" height="32" fill="none"><g clip-path="url(#a)"><path fill="#F8F8FB" d="M23.486 16.767a6.405 6.405 0 0 1 6.431 6.431 6.374 6.374 0 0 1-.986 3.43l4.402 4.431-1.986 1.987-4.46-4.388a6.428 6.428 0 0 1-3.4.972 6.405 6.405 0 0 1-6.432-6.432 6.405 6.405 0 0 1 6.431-6.431Zm0 2.858a3.573 3.573 0 1 0 0 7.146 3.573 3.573 0 0 0 0-7.146ZM12.767 5.333l2.858 2.859H27.06a2.858 2.858 0 0 1 2.858 2.858v5.445a9.29 9.29 0 0 0-15.721 6.703c0 1.844.529 3.573 1.43 5.003H4.191a2.859 2.859 0 0 1-2.859-2.859V8.192a2.849 2.849 0 0 1 2.859-2.859h8.575Z"/></g><defs><clipPath id="a"><path fill="#fff" d="M0 0h32v32H0z"/></clipPath></defs></svg>
